packages/astro-components-stencil/src/icons/clear-all.svg

<svg xmlns="http://www.w3.org/2000/svg" viewBox="0 0 24 24"><g xmlns="http://www.w3.org/2000/svg" id="clear-all" fill-rule="nonzero">
            <path d="M6 13h12c.55 0 1-.45 1-1s-.45-1-1-1H6c-.55 0-1 .45-1 1s.45 1 1 1zm-2 4h12c.55 0 1-.45 1-1s-.45-1-1-1H4c-.55 0-1 .45-1 1s.45 1 1 1zm3-9c0 .55.45 1 1 1h12c.55 0 1-.45 1-1s-.45-1-1-1H8c-.55 0-1 .45-1 1z"/>
        </g></svg>

<svg width="24" height="24" viewBox="0 0 24 24" fill="none" xmlns="http://www.w3.org/2000/svg">
<path fill-rule="evenodd" clip-rule="evenodd" d="M8 9C7.45 9 7 8.55 7 8C7 7.45 7.45 7 8 7H20C20.55 7 21 7.45 21 8C21 8.55 20.55 9 20 9H8ZM6 13H18C18.55 13 19 12.55 19 12C19 11.45 18.55 11 18 11H6C5.45 11 5 11.45 5 12C5 12.55 5.45 13 6 13ZM4 17H16C16.55 17 17 16.55 17 16C17 15.45 16.55 15 16 15H4C3.45 15 3 15.45 3 16C3 16.55 3.45 17 4 17Z" fill="black"/>
</svg>
